www.nintendo.com/images/global/navigation/icons/icon-joy-con.svg

<?xml version="1.0" encoding="UTF-8" standalone="no"?>
<svg width="52px" height="56px" viewBox="0 0 52 56" version="1.1" xmlns="http://www.w3.org/2000/svg" xmlns:xlink="http://www.w3.org/1999/xlink">
    <title>JOY-CON icon</title>
    <desc>JOY-CON icon</desc>
    <g stroke="none" stroke-width="1" fill="none" fill-rule="evenodd">
        <g transform="translate(-161.000000, -105.000000)" fill="#FFFFFF">
            <g transform="translate(161.000000, 105.000000)">
                <path d="M15.8792806,33.914608 C14.6281156,33.914608 13.6147287,32.911088 13.6147287,31.677968 C13.6147287,30.441488 14.6281156,29.437968 15.8792806,29.437968 C17.1281809,29.437968 18.1415679,30.441488 18.1415679,31.677968 C18.1415679,32.911088 17.1281809,33.914608 15.8792806,33.914608 M11.0739014,29.162448 C9.82386878,29.162448 8.81048181,28.158928 8.81048181,26.922448 C8.81048181,25.684848 9.82386878,24.682448 11.0739014,24.682448 C12.3250664,24.682448 13.3395856,25.684848 13.3395856,26.922448 C13.3395856,28.158928 12.3250664,29.162448 11.0739014,29.162448 M11.0739014,38.667888 C9.82386878,38.667888 8.81048181,37.664368 8.81048181,36.427888 C8.81048181,35.191408 9.82386878,34.187888 11.0739014,34.187888 C12.3250664,34.187888 13.3395856,35.191408 13.3395856,36.427888 C13.3395856,37.664368 12.3250664,38.667888 11.0739014,38.667888 M6.26965457,33.916848 C5.01962192,33.916848 4.00510267,32.912208 4.00510267,31.677968 C4.00510267,30.440368 5.01962192,29.435728 6.26965457,29.435728 C7.52195177,29.435728 8.53420647,30.440368 8.53420647,31.677968 C8.53420647,32.912208 7.52195177,33.916848 6.26965457,33.916848 M11.0750337,8.901648 C13.8411839,8.901648 16.0842225,11.119248 16.0842225,13.856528 C16.0842225,16.592688 13.8411839,18.809168 11.0750337,18.809168 C8.30775128,18.809168 6.06471262,16.592688 6.06471262,13.856528 C6.06471262,11.119248 8.30775128,8.901648 11.0750337,8.901648 M21.6878562,-0.000112 L12.1608863,-0.000112 C5.54499796,-0.000112 0.181406783,5.305328 0.181406783,11.848368 L0.181406783,44.148048 C0.181406783,50.693328 5.54613024,55.999888 12.1642832,55.999888 L21.6878562,55.999888 C21.8441103,55.999888 21.9709252,55.874448 21.9709252,55.719888 L21.9709252,0.279888 C21.9709252,0.125328 21.8441103,-0.000112 21.6878562,-0.000112"></path>
                <path d="M45.7424926,17.494064 C44.4913277,17.494064 43.4779407,16.490544 43.4779407,15.257424 C43.4779407,14.020944 44.4913277,13.017424 45.7424926,13.017424 C46.991393,13.017424 48.00478,14.020944 48.00478,15.257424 C48.00478,16.490544 46.991393,17.494064 45.7424926,17.494064 M40.9371135,38.028144 C38.1686988,38.028144 35.9256601,35.811664 35.9256601,33.073264 C35.9256601,30.335984 38.1686988,28.119504 40.9371135,28.119504 C43.7021314,28.119504 45.94517,30.335984 45.94517,33.073264 C45.94517,35.811664 43.7021314,38.028144 40.9371135,38.028144 M33.8683147,15.257424 C33.8683147,14.019824 34.882834,13.015184 36.1328666,13.015184 C37.3851638,13.015184 38.3974185,14.019824 38.3974185,15.257424 C38.3974185,16.491664 37.3851638,17.496304 36.1328666,17.496304 C34.882834,17.496304 33.8683147,16.491664 33.8683147,15.257424 M40.9371135,17.767344 C42.1882784,17.767344 43.2027977,18.770864 43.2027977,20.007344 C43.2027977,21.243824 42.1882784,22.247344 40.9371135,22.247344 C39.6870809,22.247344 38.6736939,21.243824 38.6736939,20.007344 C38.6736939,18.770864 39.6870809,17.767344 40.9371135,17.767344 M40.9371135,8.261904 C42.1882784,8.261904 43.2027977,9.264304 43.2027977,10.501904 C43.2027977,11.738384 42.1882784,12.741904 40.9371135,12.741904 C39.6870809,12.741904 38.6736939,11.738384 38.6736939,10.501904 C38.6736939,9.264304 39.6870809,8.261904 40.9371135,8.261904 M39.8512609,-0.000336 L30.3231587,-0.000336 C30.1669047,-0.000336 30.0400897,0.125104 30.0400897,0.279664 L30.0400897,55.719664 C30.0400897,55.874224 30.1669047,55.999664 30.3231587,55.999664 L39.8467318,55.999664 C46.4648847,55.999664 51.8296081,50.693104 51.8296081,44.147824 L51.8296081,11.849264 C51.8296081,5.305104 46.466017,-0.000336 39.8512609,-0.000336"></path>
            </g>
        </g>
    </g>
</svg>

<svg height="56" viewBox="0 0 52 56" width="52" xmlns="http://www.w3.org/2000/svg"><g fill="#fff" fill-rule="evenodd"><path d="m15.8792806 33.914608c-1.251165 0-2.2645519-1.00352-2.2645519-2.23664 0-1.23648 1.0133869-2.24 2.2645519-2.24 1.2489003 0 2.2622873 1.00352 2.2622873 2.24 0 1.23312-1.013387 2.23664-2.2622873 2.23664m-4.8053792-4.75216c-1.25003262 0-2.26341959-1.00352-2.26341959-2.24 0-1.2376 1.01338697-2.24 2.26341959-2.24 1.251165 0 2.2656842 1.0024 2.2656842 2.24 0 1.23648-1.0145192 2.24-2.2656842 2.24m0 9.50544c-1.25003262 0-2.26341959-1.00352-2.26341959-2.24s1.01338697-2.24 2.26341959-2.24c1.251165 0 2.2656842 1.00352 2.2656842 2.24s-1.0145192 2.24-2.2656842 2.24m-4.80424683-4.75104c-1.25003265 0-2.2645519-1.00464-2.2645519-2.23888 0-1.2376 1.01451925-2.24224 2.2645519-2.24224 1.2522972 0 2.2645519 1.00464 2.2645519 2.24224 0 1.23424-1.0122547 2.23888-2.2645519 2.23888m4.80537913-25.0152c2.7661502 0 5.0091888 2.2176 5.0091888 4.95488 0 2.73616-2.2430386 4.95264-5.0091888 4.95264-2.76728242 0-5.01032108-2.21648-5.01032108-4.95264 0-2.73728 2.24303866-4.95488 5.01032108-4.95488m10.6128225-8.90176h-9.5269699c-6.61588834 0-11.97947952 5.30544-11.97947952 11.84848v32.29968c0 6.54528 5.36472346 11.85184 11.98287642 11.85184h9.523573c.1562541 0 .283069-.12544.283069-.28v-55.44c0-.15456-.1268149-.28-.283069-.28"/><path d="m45.7424926 17.494064c-1.2511649 0-2.2645519-1.00352-2.2645519-2.23664 0-1.23648 1.013387-2.24 2.2645519-2.24 1.2489004 0 2.2622874 1.00352 2.2622874 2.24 0 1.23312-1.013387 2.23664-2.2622874 2.23664m-4.8053791 20.53408c-2.7684147 0-5.0114534-2.21648-5.0114534-4.95488 0-2.73728 2.2430387-4.95376 5.0114534-4.95376 2.7650179 0 5.0080565 2.21648 5.0080565 4.95376 0 2.7384-2.2430386 4.95488-5.0080565 4.95488m-7.0687988-22.77072c0-1.2376 1.0145193-2.24224 2.2645519-2.24224 1.2522972 0 2.2645519 1.00464 2.2645519 2.24224 0 1.23424-1.0122547 2.23888-2.2645519 2.23888-1.2500326 0-2.2645519-1.00464-2.2645519-2.23888m7.0687988 2.50992c1.2511649 0 2.2656842 1.00352 2.2656842 2.24s-1.0145193 2.24-2.2656842 2.24c-1.2500326 0-2.2634196-1.00352-2.2634196-2.24s1.013387-2.24 2.2634196-2.24m0-9.50544c1.2511649 0 2.2656842 1.0024 2.2656842 2.24 0 1.23648-1.0145193 2.24-2.2656842 2.24-1.2500326 0-2.2634196-1.00352-2.2634196-2.24 0-1.2376 1.013387-2.24 2.2634196-2.24m-1.0858526-8.26224h-9.5281022c-.156254 0-.283069.12544-.283069.28v55.44c0 .15456.126815.28.283069.28h9.5235731c6.6181529 0 11.9828763-5.30656 11.9828763-11.85184v-32.29856c0-6.54416-5.3635911-11.8496-11.9783472-11.8496"/></g></svg>
